!!!!SEGMENT: pl-wn--sd-xvi-qu-273--067_gomolka-mikolaj--pokryj-swym-milosierdzim-panie-nasze-zlosci.krn
!!!cenid: 15xx:272
!!!COM: Gomółka, Mikołaj
!!!COM-rismid: pe30013343
!!!CDT: ~1535->1591/04/30
!!!CNT: Polish
!!!GTL: Melodiae na psalterz polski
!!!OTL: LXVII. Pokryj swym miłosierdzim, Panie, nasze złości
!!!ONB: PSALM LXVII. Deus misereatur nostri, et benedicat nobis.
!!!PDT: 1580
!!!AGN: Sacred
!!!SMS-siglum: PL-Wn
!!!SMS-shelfmark: SD XVI.Qu.273
!!!SMS-shelfwork: 067 G
!!!NIFC-rismid:
!!!ONB-nifc: Melodiae na psalterz polski
**kern	**text	**kern	**text	**kern	**text	**kern	**text
*part4	*part4	*part3	*part3	*part2	*part2	*part1	*part1
*staff4	*staff4	*staff3	*staff3	*staff2	*staff2	*staff1	*staff1
*clefF4	*	*clefC3	*	*clefC3	*	*clefC1	*
*k[b-]	*	*k[b-]	*	*k[b-]	*	*k[b-B-]	*
*d:	*	*d:	*	*d:	*	*d:	*
*M2/1	*	*M2/1	*	*M2/1	*	*M2/1	*
*met(C|)	*	*met(C|)	*	*met(C|)	*	*met(C|)	*
*I"BASSUS.	*	*I"TENOR.	*	*I"ALTUS.	*	*I"CANTUS.	*
*>[A,A,B]	*	*>[A,A,B]	*	*>[A,A,B]	*	*>[A,A,B]	*
=1-	=1	=1-	=1	=1-	=1	=1-	=1
*>A	*	*>A	*	*>A	*	*>A	*
*	*^	*	*^	*	*^	*	*^
!	!	!	!	!	!	!	!	!	!LO:TX:a:t=P:dwa bemole przy kluczu:problem	!	!
1D\	Po-	A	1d\	Po-	A	1f\	Po-	A	1a\	Po-	A
1AA/	-kryy	rácz	1c\	-kryy	rácz	1e\	-kryy	rácz	1a\	kryy	rácz
=2-	=2	=2	=2-	=2	=2	=2-	=2	=2	=2-	=2	=2
1.D\	swym	nam	1.f\	swym	nam	1.d\	swym	nam	1a\	swym	nam
.	.	.	.	.	.	.	.	.	2a\	mi-	bło-
2C/	mi-	bło-	2e\	mi-	bło-	2g\	mi-	bło-	1cc\	-ło-	-(go-
=3-	=3	=3	=3-	=3	=3	=3-	=3	=3	=3-	=3	=3
2F\	-ło-	-(go-	2d\	-ło-	-go-	2a\	-ło-	-go-	.	.	.
2G\	-(śier-	-słá-	2d\	-(śier-	-(słá-	4g\	-śier-	-(słá-	2b-\	-(śier-	-słá-
.	.	.	.	.	.	4f\	.	.	.	.	.
2A\	-dzim)	-wić)	2c/	-dzim)	-wić)	2e\	-(dzim)	-wić)	2a\	-dzim)	-wić)
2AA/	pá-	z oy-	2A/	pá-	z oy-	2c/	pá-	z oy-	2cc\	pá-	z oy-
=4-	=4	=4	=4-	=4	=4	=4-	=4	=4	=4-	=4	=4
2BB-/	-(nie)	-co(w-	2d\	-(nie)	-co(w-	4d\	-(nie)	-co(w-	2b-\	-(nie)	-cow-
.	.	.	.	.	.	4e\	.	.	.	.	.
2FF/	ná-	-skiey)	2c/	ná-	-skiey)	4f\	ná-	-skiey)	2a\	ná-	-(skiy)
.	.	.	.	.	.	4e\	.	.	.	.	.
2GG/	-(szé)	mi-	2B-/	-szé	mi-	4d\	-(szé)	mi-	2a\	-sze	mi-
.	.	.	.	.	.	4c\	.	.	.	.	.
2GG/	zło-	-ło-	2B-/	zło-	-ło-	2d	zło-	ło-	2g/	zło-	-ło-
=5-	=5	=5	=5-	=5	=5	=5-	=5	=5	=5-	=5	=5
1D\	-śći:	-śći:	1A/	-śći	-śći:	1d\	-śći,	-śći:	1a\	ści,	śći:
*	*v	*v	*	*v	*v	*	*v	*v	*	*v	*v
=:|!	=	=:|!	=	=:|!	=	=:|!	=
*>B	*	*>B	*	*>B	*	*>B	*
1D\	Ro-	1d\	Ro-	2.f\	Ro-	2a\	Ro-
.	.	.	.	.	.	1dd\	-świéć
!	!	!	!	!LO:SIC:s=4g:v	!	!	!
.	.	.	.	4gyy	.	.	.
=6-	=6	=6-	=6	=6-	=6	=6-	=6
2D/	-ś(wiéć)	2f\	-ś(wiéć)	2a\	-ś(wiéć)	.	.
2A\	nas	2e\	nas	1a\	nas	2cc\	nas
2A\	świá-	2c/	świá-	.	.	2cc\	świá-
2B-\	-(tłem)	2d\	-(tłem)	2g\	świá-	2b-\	-(tłem)
=7-	=7	=7-	=7	=7-	=7	=7-	=7
1A\	swo-	1e\	swo-	2.a\	-(tłem)	4cc\	.
.	.	.	.	.	.	2dd\	sw(o-
.	.	.	.	4g\	sw(o-	4dd\	.
2D\	-(im)	2d\	-(im)	2f\	-im)	2dd\	-im)
4G\	á-	2d\	á-	2g\	á-	2b-\	á-
4F\	.	.	.	.	.	.	.
=8-	=8	=8-	=8	=8-	=8	=8-	=8
!!LO:PB:g=original
2E\	-bych-	2g\	-bych-	2c/	-bych-	2cc\	-bych-
2D/	-my	2f\	-my	2d\	-my	2a\	-my
2AA/	po-	2e\	po-	2.c/	po-	2.a\	po-
2AA/	-zná-	2e\	-zná-	.	.	.	.
.	.	.	.	4B-/	-zná-	4g/	-zná-
=9-	=9	=9-	=9	=9-	=9	=9-	=9
2D/	-li	2d\	-li	2A/	-li	2f/	-li
2D/	Dró-	1f\	Dró-	1d\	Dró-	2a\	Dró-
2BB-/	-gi	.	.	.	.	2b-\	.
2C/	two-	2e\	-gi	2c/	-gi	2a\	-gi
=10-	=10	=10-	=10	=10-	=10	=10-	=10
4D/	-ie,	1d\	two-	1B-/	two-	4f/	two-
4C/	.	.	.	.	.	4e/	.
4D/	.	.	.	.	.	4f/	.
4E\	.	.	.	.	.	4g/	.
2F\	.	2c/	-ie,	2A/	-ie	2a\	-ie,
4BB-/	y	2d\	y	2f\	y	4d/	y
4C/	.	.	.	.	.	4e/	.
=11-	=11	=11-	=11	=11-	=11	=11-	=11
4D/	ży-	2d\	ży-	2f\	.	4f/	.
4E\	.	.	.	.	.	4g/	.
2F\	-wot	2c/	-wot	2f\	.	2a\	.
2G\	wie-	1B-/	wie-	1d\	ży-	2g/	wie-
2GG/	.	.	.	.	.	4f#X/	-czną
.	.	.	.	.	.	4e/	.
=12-	=12	=12-	=12	=12-	=12	=12-	=12
2D/	-czny	2A/	-czny	2d\	-wot	2f#X/	łá-
2.D/	o-	1d\	o-	1f\	wie-	1a\	.
.	.	.	.	.	.	.	.
4E\	-trzy-	.	.	.	.	.	.
2F\	-má-	2c/	-trzy-	2f\	-czny	2a\	-skę
=13-	=13	=13-	=13	=13-	=13	=13-	=13
2.BB-/	.	1B-/	-má-	1d\	o-	1fny/	o-
4C/	-li:	.	.	.	.	.	.
*	*	*000/left	*	*	*	*	*
000D\	.	000A/	-li.	2.d\	-trzy-	2.f/	-trzy-
.	.	.	.	4e\	-má-	4g/	-má-
=14-	=14	=14-	=14	=14-	=14	=14-	=14
.	.	.	.	000f\	-li.	000a\	-li.
1ryy	.	1ryy	.	.	.	.	.
==	==	==	==	==	==	==	==
*-	*-	*-	*-	*-	*-	*-	*-
!!!RDF**kern: l = terminal long
!!!system-decoration: s1,s2,s3,s4
!!!ENC: Marta Lawrence
!!!END: 2020-02-13
!!!URL-scan: https://polona.pl/item/melodiae-na-psalterz-polski,Nzk3MTM4ODQ/166 Scan on Polona
!!!IIIF: https://polona.pl/iiif/item/Nzk3MTM4ODQ/manifest.json
